X:1
T:Mrzel veter
T:Mrzel veter
T:Anja po posluhu :)
T:Slovenska ljudska
C:Anja po posluhu
Z:Slovenska ljudska
%%score { 1 | 2 }
L:1/8
M:3/4
K:F
V:1 treble nm="Piano" snm="Pno."
V:2 bass 
V:1
 CD | CF F2 CD | CG G2 ED | C3 B, DD | C4 CD | CF F2 CD | CG G2 GA | B3 A GE | F4 AA | G3 G A=B | %10
w: Mr- zel|ve- e- ter te- be|že- e- ne drob- na|pti- či- ca od|nas. Ki 'znad|li- i- pi- ce ze-|le- e- ne si mi|pe- la kra- tek|čas. Vsa- ko|ju- tro pti- čka|
w: Ka- dar|ko- o- li si zle-|te- e- la v,svo je|ma- lo gne- zde-|ce, vsa- ko-|kra- at si mi za-|pe- e- la mi- lo|pe- sem v,sr- če-|ce. Zdaj boš|za- pu- sti- la|
 c2 G2 AA | G3 G A=B | c2 !fermata!B2 CD | CF F2 CD | CG G2 GA | B3 A GE | F6 :| %17
w: mo- ja zgo- daj|si pre- pe- va-|la- a. Vsa- ko|no- oč je pe- sem|tvo- o- ja sla- dko|me za- zi- ba-|la.|
w: me- ne oj, kak'|me sr- ce bo-|li- i. Mr- zel|ve- e- ter te- be|že- e- ne poj- di|ker te ve- se-|li.|
V:2
 z2 | [F,,A,,C,]4 z2 | [C,E,G,]4 z2 | [C,E,G,]4 [B,,D,F,]2 | [F,,A,,C,]4 z2 | [F,,A,,C,]4 z2 | %6
 [C,E,G,]4 z2 | [B,,D,F,]4 [C,E,B,]2 | [F,,A,,C,]4 z2 | [G,,=B,,D,]4 z2 | [C,E,G,]4 z2 | %11
 [G,,=B,,D,]4 z2 | [C,E,G,]2 [C,E,B,]2 z2 | [F,,A,,C,]4 z2 | [C,E,G,]4 z2 | [C,E,G,]4 [C,E,B,]2 | %16
 [F,,A,,C,]6 :| %17

